img/icones/servicos/notebook-icone.svg

<svg width="24" height="24" fill="none" xmlns="http://www.w3.org/2000/svg"><path d="M20 18c1.1 0 2-.9 2-2V6c0-1.1-.9-2-2-2H4c-1.1 0-2 .9-2 2v10c0 1.1.9 2 2 2H1c-.55 0-1 .45-1 1s.45 1 1 1h22c.55 0 1-.45 1-1s-.45-1-1-1h-3ZM5 6h14c.55 0 1 .45 1 1v8c0 .55-.45 1-1 1H5c-.55 0-1-.45-1-1V7c0-.55.45-1 1-1Z" fill="url(#a)"/><defs><linearGradient id="a" x1="12" y1="4.32" x2="14.317" y2="19.322" gradientUnits="userSpaceOnUse"><stop stop-color="#345EC2"/><stop offset="1" stop-color="#113896"/></linearGradient></defs></svg>

<svg width="24" height="24" viewBox="0 0 24 24" fill="none" xmlns="http://www.w3.org/2000/svg">
<path d="M20 18C21.1 18 22 17.1 22 16V6C22 4.9 21.1 4 20 4H4C2.9 4 2 4.9 2 6V16C2 17.1 2.9 18 4 18H1C0.45 18 0 18.45 0 19C0 19.55 0.45 20 1 20H23C23.55 20 24 19.55 24 19C24 18.45 23.55 18 23 18H20ZM5 6H19C19.55 6 20 6.45 20 7V15C20 15.55 19.55 16 19 16H5C4.45 16 4 15.55 4 15V7C4 6.45 4.45 6 5 6Z" fill="url(#paint0_linear_434_169)"/>
<defs>
<linearGradient id="paint0_linear_434_169" x1="12" y1="4.32" x2="14.3171" y2="19.3221" gradientUnits="userSpaceOnUse">
<stop stop-color="#345EC2"/>
<stop offset="1" stop-color="#113896"/>
</linearGradient>
</defs>
</svg>
